src/svg/shipping.svg

<svg width="29" height="31" viewBox="0 0 29 31" fill="none" xmlns="http://www.w3.org/2000/svg">
<path d="M13.0435 1.5129C13.4891 1.26835 13.9903 1.14001 14.5 1.14001C15.0097 1.14001 15.5109 1.26835 15.9565 1.5129L27.229 7.70086C27.4627 7.8293 27.6574 8.01716 27.793 8.24497C27.9285 8.47279 28 8.73227 28 8.99656V21.205C27.9999 21.7337 27.8567 22.2528 27.5853 22.7084C27.3139 23.164 26.9242 23.5397 26.4565 23.7964L15.9565 29.5633C15.5109 29.8078 15.0097 29.9362 14.5 29.9362C13.9903 29.9362 13.4891 29.8078 13.0435 29.5633L2.5435 23.7964C2.07603 23.5398 1.68645 23.1644 1.41507 22.709C1.1437 22.2537 1.00039 21.7349 1 21.2064V8.99656C0.999989 8.73227 1.07146 8.47279 1.20702 8.24497C1.34258 8.01716 1.5373 7.8293 1.771 7.70086L13.045 1.5129H13.0435Z" stroke="white" stroke-width="2" stroke-linecap="round" stroke-linejoin="round"/>
<path d="M1 8.12485L14.5 15.5373M14.5 15.5373L28 8.12485M14.5 15.5373V30.3623" stroke="white" stroke-width="2" stroke-linejoin="round"/>
<path d="M7.75 11.8311L21.25 4.41858M5.5 16.0236L10 18.5023" stroke="white" stroke-width="2" stroke-linecap="round" stroke-linejoin="round"/>
</svg>

<svg width="29" height="31" fill="none" xmlns="http://www.w3.org/2000/svg"><path d="M13.043 1.513a3.028 3.028 0 0 1 2.914 0L27.229 7.7c.234.128.428.316.564.544.136.228.207.487.207.752v12.208c0 .529-.143 1.048-.415 1.503a2.984 2.984 0 0 1-1.129 1.088l-10.5 5.767a3.028 3.028 0 0 1-2.912 0l-10.5-5.767a2.984 2.984 0 0 1-1.129-1.087A2.938 2.938 0 0 1 1 21.206V8.996c0-.264.071-.523.207-.751.136-.228.33-.416.564-.544l11.274-6.188h-.002Z" stroke="#fff" stroke-width="2" stroke-linecap="round" stroke-linejoin="round"/><path d="m1 8.125 13.5 7.412m0 0L28 8.125m-13.5 7.412v14.825" stroke="#fff" stroke-width="2" stroke-linejoin="round"/><path d="m7.75 11.831 13.5-7.412M5.5 16.024l4.5 2.478" stroke="#fff" stroke-width="2" stroke-linecap="round" stroke-linejoin="round"/></svg>
